X: 19105
T: Irish Lamentation
R: waltz
M: 3/4
K: Amixolydian
|:A>Bc2c2|c<ec2B2|c<ef2B2|B<cc2B2|
A>Bc2e<a|e>cB2A<G|A>Bc2A2|B2A4:|
|:e>fg2g2|f>ef2a2|a>fe2c2|B>AB4|
A>Bc2e<a|e>cB2A<G|A>Bc2A2|B2A4:|

